dist/img/home/home_intro_icon_1.svg

<svg width="61" height="61" viewBox="0 0 61 61" fill="none" xmlns="http://www.w3.org/2000/svg">
<path d="M48.4015 41.8302V26.5638C48.4015 17.6175 41.2913 10.367 32.5182 10.367H28.3152C19.5421 10.367 12.4318 17.6175 12.4318 26.5638V41.8302M20.3006 12.5801H14.5725C7.62147 12.5801 1.98779 18.325 1.98779 25.4132H8.83621C10.1481 25.4132 11.5896 25.0333 12.6019 24.18M48.4852 24.191C49.4975 25.0443 50.7608 25.4021 52.0727 25.4021H58.9211C58.9211 18.314 53.2874 12.5691 46.3365 12.5691H40.6083M26.1233 10.5239L24.8302 4.16241C24.285 1.47854 20.5031 1.53635 20.0388 4.23674L18.6054 12.5774M42.3494 12.5801L40.638 4.16241C40.0927 1.47854 36.3108 1.53635 35.8465 4.23674L34.7641 10.5294M23.0081 27.541C22.6383 27.541 22.3387 27.8465 22.3387 28.2236C22.3387 28.6008 22.6383 28.9063 23.0081 28.9063C23.3779 28.9063 23.6776 28.6008 23.6776 28.2236C23.6776 27.8465 23.3779 27.541 23.0081 27.541ZM37.7685 27.541C37.3987 27.541 37.0991 27.8465 37.0991 28.2236C37.0991 28.6008 37.3987 28.9063 37.7685 28.9063C38.1383 28.9063 38.438 28.6008 38.438 28.2236C38.438 27.8465 38.1383 27.541 37.7685 27.541Z" stroke="#D5D5D5" stroke-width="1.25" stroke-linecap="round" stroke-linejoin="round"/>
<path d="M43.5261 40.6667H17.3829C12.8108 40.6667 9.10449 44.3861 9.10449 48.9743V51.6757C9.10449 56.2639 12.8108 59.9834 17.3829 59.9834H43.5261C48.0981 59.9834 51.8045 56.2639 51.8045 51.6757V48.9743C51.8045 44.3861 48.0981 40.6667 43.5261 40.6667Z" stroke="#D5D5D5" stroke-width="1.25" stroke-linecap="round" stroke-linejoin="round"/>
<path d="M20.9937 52.8667C21.0176 52.8667 21.0414 52.8667 21.0652 52.8667C22.6082 52.8667 23.876 51.7203 23.876 50.325C23.876 48.9297 22.6082 47.7833 21.0652 47.7833C19.5222 47.7833 18.2544 48.9297 18.2544 50.325C18.2544 50.3298 18.2544 50.3322 18.2544 50.337M42.6544 50.337C42.6544 50.337 42.6544 50.3298 42.6544 50.325C42.6544 48.9297 41.3866 47.7833 39.8436 47.7833C38.3006 47.7833 37.0328 48.9297 37.0328 50.325C37.0328 51.7203 38.3006 52.8667 39.8436 52.8667C39.8674 52.8667 39.8912 52.8667 39.9151 52.8667" stroke="#D5D5D5" stroke-width="1.25" stroke-linecap="round" stroke-linejoin="round"/>
</svg>

<svg width="61" height="61" viewBox="0 0 61 61" fill="none" xmlns="http://www.w3.org/2000/svg"><path d="M48.401 41.83V26.564c0-8.947-7.11-16.197-15.883-16.197h-4.203c-8.773 0-15.883 7.25-15.883 16.197V41.83M20.3 12.58h-5.728c-6.952 0-12.585 5.745-12.585 12.833h6.848c1.312 0 2.754-.38 3.766-1.233m35.883.011c1.013.853 2.276 1.211 3.588 1.211h6.848c0-7.088-5.634-12.833-12.584-12.833h-5.729m-14.485-2.045L24.83 4.162c-.545-2.683-4.327-2.626-4.791.075l-1.434 8.34m23.744.003l-1.711-8.418c-.545-2.683-4.327-2.626-4.791.075l-1.083 6.292M23.008 27.541c-.37 0-.67.305-.67.683 0 .377.3.682.67.682.37 0 .67-.305.67-.682 0-.378-.3-.683-.67-.683zm14.76 0a.675.675 0 00-.669.683c0 .377.3.682.67.682.37 0 .669-.305.669-.682 0-.378-.3-.683-.67-.683z" stroke="#D5D5D5" stroke-width="1.25" stroke-linecap="round" stroke-linejoin="round"/><path d="M43.526 40.667H17.383c-4.572 0-8.279 3.72-8.279 8.307v2.702c0 4.588 3.707 8.307 8.279 8.307h26.143c4.572 0 8.278-3.72 8.278-8.307v-2.702c0-4.588-3.706-8.307-8.278-8.307z" stroke="#D5D5D5" stroke-width="1.25" stroke-linecap="round" stroke-linejoin="round"/><path d="M20.994 52.867h.071c1.543 0 2.811-1.147 2.811-2.542 0-1.395-1.268-2.542-2.81-2.542-1.544 0-2.812 1.147-2.812 2.542v.012m24.4 0v-.012c0-1.395-1.267-2.542-2.81-2.542-1.543 0-2.811 1.147-2.811 2.542 0 1.395 1.268 2.542 2.81 2.542h.072" stroke="#D5D5D5" stroke-width="1.25" stroke-linecap="round" stroke-linejoin="round"/></svg>
